public/logos/LO.svg

<?xml version="1.0" encoding="UTF-8"?>
<svg xmlns="http://www.w3.org/2000/svg" xmlns:xlink="http://www.w3.org/1999/xlink" width="128.68pt" height="59pt" viewBox="0 0 128.68 59" version="1.1">
<defs>
<clipPath id="clip1">
  <path d="M 0 13 L 128.679688 13 L 128.679688 59 L 0 59 Z M 0 13 "/>
</clipPath>
</defs>
<g id="surface1">
<path style=" stroke:none;fill-rule:evenodd;fill:rgb(11.528015%,16.931152%,32.05719%);fill-opacity:1;" d="M 69.890625 6.414062 L 71.210938 0.015625 L 75.527344 0.015625 L 75.351562 1.066406 L 72.183594 1.066406 L 71.863281 2.691406 L 74.824219 2.691406 L 74.636719 3.710938 L 71.691406 3.710938 L 71.304688 5.398438 L 74.445312 5.398438 L 74.234375 6.414062 Z M 81.71875 0 L 81.464844 1.003906 L 78.535156 1.035156 C 77.976562 1.035156 77.609375 2.609375 78.039062 2.609375 L 80.429688 2.769531 C 81.941406 2.835938 80.730469 6.402344 79.1875 6.402344 L 75.796875 6.449219 L 76.050781 5.429688 L 79.1875 5.382812 C 79.90625 5.363281 80.460938 3.726562 79.824219 3.726562 C 78.933594 3.726562 78.375 3.660156 77.976562 3.660156 C 76.894531 3.660156 76.71875 3.039062 76.71875 1.925781 C 76.71875 1.019531 77.691406 0 78.675781 0 Z M 63.617188 0.015625 L 65.605469 0.015625 L 67.199219 5.398438 L 67.246094 5.398438 L 68.25 0.015625 L 69.460938 0.015625 L 68.121094 6.414062 L 66.101562 6.414062 L 64.574219 1.066406 L 64.527344 1.066406 L 63.488281 6.414062 L 62.296875 6.414062 Z M 60.59375 0.015625 L 61.800781 0.015625 L 60.480469 6.414062 L 59.273438 6.414062 Z M 55.179688 0.015625 L 53.828125 6.414062 L 57.996094 6.414062 L 58.207031 5.398438 L 55.277344 5.398438 L 56.390625 0.015625 Z M 51.535156 0.015625 C 54.082031 0.015625 53.636719 3.773438 51.613281 3.820312 C 53.015625 3.789062 52.296875 5.683594 52.140625 6.414062 L 50.929688 6.414062 L 51.117188 5.476562 C 51.261719 4.746094 51.3125 4.332031 50.308594 4.332031 L 48.730469 4.332031 L 48.269531 6.414062 L 47.078125 6.414062 L 48.429688 0.015625 Z M 51.117188 1.066406 L 49.402344 1.066406 L 48.941406 3.3125 L 50.707031 3.3125 C 51.484375 3.3125 51.980469 2.945312 52.042969 2.214844 C 52.105469 1.464844 52.042969 1.066406 51.117188 1.066406 Z M 45.40625 0.015625 L 46.582031 0.015625 L 45.246094 6.414062 L 44.035156 6.414062 Z M 40.359375 0.015625 L 42.125 0.015625 L 42.9375 6.414062 L 41.695312 6.414062 L 41.550781 5.253906 L 38.828125 5.253906 L 38.175781 6.414062 L 36.902344 6.414062 Z M 39.324219 4.332031 L 41.457031 4.332031 L 41.074219 0.941406 Z M 29.324219 0.015625 L 30.566406 0.015625 L 29.992188 2.644531 L 32.953125 2.644531 L 33.496094 0.015625 L 34.707031 0.015625 L 33.367188 6.414062 L 32.160156 6.414062 L 32.699219 3.675781 L 29.804688 3.675781 L 29.214844 6.414062 L 28.003906 6.414062 Z M 19.980469 0.015625 L 21.171875 0.015625 L 19.820312 6.414062 L 18.609375 6.414062 Z M 14.519531 0.015625 L 15.746094 0.015625 L 14.628906 5.398438 L 17.558594 5.398438 L 17.335938 6.414062 L 13.164062 6.414062 Z M 10.332031 0.015625 L 10.316406 0.015625 C 8.707031 0.015625 7.515625 0.699219 7.210938 2.417969 C 6.84375 4.441406 5.636719 6.414062 8.789062 6.414062 C 9.566406 6.414062 11.015625 6.304688 11.367188 5.8125 C 11.988281 4.886719 12.640625 2.851562 12.640625 2.179688 C 12.640625 0.558594 12.226562 0.015625 10.332031 0.015625 Z M 10.171875 0.988281 C 9.167969 0.988281 8.515625 1.59375 8.390625 2.324219 L 8.054688 3.996094 C 7.894531 4.839844 7.976562 5.398438 9.167969 5.398438 C 10.234375 5.398438 10.761719 5.160156 11.015625 4.15625 L 11.445312 2.484375 C 11.621094 1.257812 11.351562 0.988281 10.171875 0.988281 Z M 1.894531 3.34375 L 3.375 3.34375 C 4.1875 3.34375 4.570312 3.296875 4.839844 2.308594 C 4.96875 1.800781 5.015625 1.066406 3.886719 1.066406 L 2.339844 1.066406 Z M 1.6875 4.378906 L 1.210938 6.414062 L 0 6.414062 L 1.367188 0.015625 L 4.140625 0.015625 C 4.585938 0.015625 5.84375 0.285156 6.019531 0.941406 C 6.320312 1.992188 5.667969 3.566406 5.175781 3.886719 C 4.871094 4.074219 4.363281 4.378906 3.488281 4.378906 Z M 27.414062 0 L 27.160156 1.003906 L 24.230469 1.035156 C 23.671875 1.035156 23.308594 2.609375 23.738281 2.609375 L 26.125 2.769531 C 27.636719 2.835938 26.425781 6.402344 24.882812 6.402344 L 21.492188 6.449219 L 21.746094 5.429688 L 24.882812 5.382812 C 25.597656 5.363281 26.15625 3.726562 25.519531 3.726562 C 24.628906 3.726562 24.070312 3.660156 23.671875 3.660156 C 22.589844 3.660156 22.414062 3.039062 22.414062 1.925781 C 22.414062 1.019531 23.386719 0 24.375 0 L 27.414062 0 "/>
<g clip-path="url(#clip1)" clip-rule="nonzero">
<path style=" stroke:none;fill-rule:evenodd;fill:rgb(11.528015%,16.931152%,32.05719%);fill-opacity:1;" d="M 58.890625 13.597656 L 128.683594 13.597656 L 125.039062 27.574219 L 110.835938 27.574219 L 102.414062 59 L 86.75 59 L 95.171875 27.574219 L 80.429688 27.574219 C 82.054688 30.425781 82.929688 33.402344 82.722656 36.28125 C 82.023438 46.660156 76.226562 58.570312 58.492188 58.96875 L 57.585938 58.96875 L 57.550781 59 C 57.550781 59 57.550781 59 57.550781 58.96875 L 15.855469 58.96875 L 15.855469 59 L 0.191406 59 L 12.355469 13.613281 L 28.019531 13.613281 L 19.613281 44.992188 L 33.988281 44.992188 C 32.90625 42.15625 32.398438 39.164062 32.398438 36.28125 C 32.398438 25.710938 40.46875 13.613281 57.550781 13.613281 C 57.996094 13.613281 58.425781 13.613281 58.871094 13.644531 Z M 66.277344 39.289062 C 66.578125 38.273438 66.722656 37.285156 66.800781 36.28125 C 67.054688 32.492188 64.460938 28.210938 59.128906 27.574219 L 56.453125 27.574219 C 51.167969 28.210938 48.765625 32.492188 48.765625 36.28125 C 48.765625 37.316406 48.988281 38.605469 49.335938 39.65625 C 50.308594 42.285156 52.457031 44.5625 56.390625 44.992188 C 61.070312 45.164062 64.511719 44.132812 66.277344 39.289062 "/>
</g>
<path style=" stroke:none;fill-rule:evenodd;fill:rgb(11.528015%,16.931152%,32.05719%);fill-opacity:1;" d="M 66.339844 39.050781 L 66.164062 39.496094 L 57.28125 39.496094 L 59.972656 41.421875 C 60.988281 42.15625 61.054688 43.957031 60.542969 44.65625 L 55.46875 39.496094 L 49.335938 39.515625 L 49.242188 39.277344 C 51.34375 38.71875 53.382812 38.066406 55.226562 37.460938 L 59.859375 27.683594 C 60.351562 28.6875 61.675781 29.660156 60.71875 31.171875 L 57.121094 36.855469 C 59.253906 36.28125 59.78125 38.382812 60.351562 38.78125 C 60.800781 39.085938 62.011719 39.035156 62.695312 38.894531 C 63.410156 38.734375 62.742188 38.003906 63.347656 38.003906 C 66.292969 38.003906 65.160156 39.304688 65.957031 39.164062 C 66.070312 39.164062 66.226562 39.035156 66.339844 39.050781 "/>
<path style=" stroke:none;fill-rule:evenodd;fill:rgb(11.528015%,16.931152%,32.05719%);fill-opacity:1;" d="M 57.585938 58.96875 C 57.585938 59 57.585938 59 57.585938 58.96875 L 57.550781 58.96875 L 57.585938 58.96875 C 57.585938 59 57.585938 59 57.585938 58.96875 "/>
</g>
</svg>

<svg xmlns="http://www.w3.org/2000/svg" width="171.573" height="59pt" viewBox="0 0 128.68 59"><defs><clipPath id="a"><path d="M0 13h128.68v46H0Zm0 0"/></clipPath></defs><path d="M69.89 6.414 71.21.016h4.317l-.175 1.05h-3.168l-.32 1.625h2.96l-.187 1.02H71.69l-.386 1.687h3.14l-.21 1.016ZM81.72 0l-.254 1.004-2.93.031c-.558 0-.926 1.574-.496 1.574l2.39.16c1.512.067.301 3.633-1.242 3.633l-3.39.047.254-1.02 3.136-.046c.72-.02 1.274-1.656.637-1.656-.89 0-1.449-.067-1.847-.067-1.082 0-1.258-.62-1.258-1.734 0-.906.972-1.926 1.957-1.926ZM63.617.016h1.988L67.2 5.398h.047L68.25.016h1.21l-1.339 6.398h-2.02l-1.527-5.348h-.047l-1.039 5.348h-1.191Zm-3.023 0H61.8l-1.32 6.398h-1.208Zm-5.414 0-1.352 6.398h4.168l.211-1.016h-2.93L56.391.016Zm-3.645 0c2.547 0 2.102 3.757.078 3.804 1.403-.03.684 1.864.528 2.594H50.93l.187-.937c.145-.73.196-1.145-.808-1.145H48.73l-.46 2.082h-1.192L48.43.016Zm-.418 1.05h-1.715l-.46 2.247h1.765c.777 0 1.273-.368 1.336-1.098.062-.75 0-1.149-.926-1.149m-5.71-1.05h1.175l-1.336 6.398h-1.21Zm-5.048 0h1.766l.813 6.398h-1.243l-.144-1.16h-2.723l-.652 1.16h-1.274Zm-1.035 4.316h2.133l-.383-3.39Zm-10-4.316h1.242l-.574 2.629h2.961l.543-2.63h1.211l-1.34 6.4H32.16l.54-2.74h-2.895l-.59 2.74h-1.211Zm-9.344 0h1.192L19.82 6.414h-1.21Zm-5.46 0h1.226L14.63 5.398h2.93l-.223 1.016h-4.172Zm-4.188 0h-.016c-1.609 0-2.8.683-3.105 2.402-.367 2.023-1.574 3.996 1.578 3.996.777 0 2.227-.11 2.578-.601.621-.926 1.274-2.961 1.274-3.633 0-1.621-.414-2.164-2.309-2.164m-.16.972c-1.004 0-1.656.606-1.781 1.336l-.336 1.672c-.16.844-.078 1.402 1.113 1.402 1.066 0 1.594-.238 1.848-1.242l.43-1.672c.175-1.226-.094-1.496-1.274-1.496M1.895 3.344h1.48c.813 0 1.195-.047 1.465-1.035.129-.508.176-1.243-.953-1.243H2.34Zm-.208 1.035-.476 2.035H0L1.367.016h2.774c.445 0 1.703.27 1.879.925.3 1.051-.352 2.625-.844 2.946a2.97 2.97 0 0 1-1.688.492ZM27.415 0l-.254 1.004-2.93.031c-.558 0-.921 1.574-.492 1.574l2.387.16c1.512.067.3 3.633-1.242 3.633l-3.39.047.253-1.02 3.137-.046c.715-.02 1.273-1.656.637-1.656-.891 0-1.45-.067-1.848-.067-1.082 0-1.258-.62-1.258-1.734 0-.906.973-1.926 1.961-1.926z" style="stroke:none;fill-rule:evenodd;fill:#1d2b52;fill-opacity:1"/><g clip-path="url(#a)"><path d="M58.89 13.598h69.794l-3.645 13.976h-14.203L102.414 59H86.75l8.422-31.426H80.43c1.625 2.852 2.5 5.828 2.293 8.707-.7 10.38-6.496 22.29-24.23 22.688h-.907L57.55 59v-.031H15.855V59H.191l12.164-45.387H28.02l-8.407 31.38h14.375a24.6 24.6 0 0 1-1.59-8.712c0-10.57 8.07-22.668 25.153-22.668.445 0 .875 0 1.32.032Zm7.387 25.691c.301-1.016.446-2.004.524-3.008.254-3.789-2.34-8.07-7.672-8.707h-2.676c-5.285.637-7.687 4.918-7.687 8.707 0 1.035.222 2.324.57 3.375.973 2.63 3.121 4.907 7.055 5.336 4.68.172 8.12-.86 9.886-5.703" style="stroke:none;fill-rule:evenodd;fill:#1d2b52;fill-opacity:1"/></g><path d="m66.34 39.05-.176.446h-8.883l2.692 1.926c1.015.734 1.082 2.535.57 3.234l-5.074-5.16-6.133.02-.094-.239c2.102-.558 4.14-1.21 5.985-1.816l4.632-9.777c.493 1.003 1.817 1.976.86 3.488l-3.598 5.683c2.133-.574 2.66 1.528 3.23 1.926.45.305 1.66.254 2.344.114.715-.16.047-.891.653-.891 2.945 0 1.812 1.3 2.609 1.16.113 0 .27-.129.383-.113M57.586 58.969q0 .046 0 0h-.035zq0 .046 0 0" style="stroke:none;fill-rule:evenodd;fill:#1d2b52;fill-opacity:1"/></svg>
